X: 071
T: Little Bet the Ballad Singer
%R: march, reel
Z: 2018 John Chambers <jc:trillian.mit.edu>
B: Bland and Weller "Country Dances for the Year 1798" p.7 #1
M: C
L: 1/8
K: D
% - - - - - - - - - - - - - - - - - - - - - - - - -
|:\
FAd2 ceg2 | fdcd e/d/c/B/ AG |\
FAd2 ceg2 | fdBc d2d2 :|
|:\
fd (f/g/a) ec (e/f/g) | fdcd e/d/c/B/ A2 |\
fd (f/g/a) ec (e/f/g) | fd Bc d2d2 :|
|:\
FDGE AFBG | gfed (c/d/e) Ag |\
fdge afbg | (f/g/a) Ac d2d2 :|
% - - - - - - - - - - - - - - - - - - - - - - - - -
%%begintext align
%%  Cast off two Cu: & up again .| change sides &
%% back again .|. lead down the middle & up again :|.
%% Allmand :|: turn Corners .:|:.
%%endtext
% - - - - - - - - - - - - - - - - - - - - - - - - -
